X:214
T: Pfingstlied
N: A0567B
O: Europa, Mitteleuropa, Deutschland
N: Leisentrit 1567 I. fol. 183
R: Romanze, Ballade, Lied, religioeses Lied
M: 4/1
L: 1/2
K: F
F4 | G2G2F2F2 | D2C2D2F2 | F2z2
A2c2 | d2c2A2F2 | D2F2F2z2
A3AA2G2 | A4F2F2 | G2G2A4 | F4
G2G2 | A4F4 | D4F2F2 | G2F2E2D2
D3EF4 | F4

